X:1
T:Ah me! my mistress scorns my love - Bateson
T:James Gibb editions
T:#
%%score { 1 | 2 } 3
L:1/8
Q:1/4=108
M:4/4
K:Bb
V:1 treble nm="Soprano I" snm="S"
V:2 treble 
V:3 treble-8 nm="Tenor" snm="T"
V:1
"^Ah me! my mistress scorns my love""^Thomas Bateson\n(1575-1630)"!p! d8 | G4 z2 B2 | A4 z2 ^F2 | %3
w: Ah|me! ah|me! ah|
 G4 e4 | d4 z2 d2 |[M:4/4] d2 d2 f3 f | e2 d2 B3 c | de f3 e (dc) | (B3 A) G4- | G2 ^F2 G3 A | %10
w: me! ah|me! ah|me! my mis- tress|scorns my love, ah|me! my mis- tress scorns *|my * love.|* I fear she|
 B2 G2 G2 ^F2 | G2 G2 d3 e | f2 d2 e3 d | (c4 d2) G2 | ^F3 G A2 F2 | G3 A B2 d2 | c3 B A3 A | %17
w: will most cru- el|prove, I fear she|will most cru- el|prove, * I|fear she will most|cru- el prove, she|will most cru- el|
 B4 z2 G2 | ^F4 (d4- | d4 c4) | d2 d2 A2 B2 | c3 c c2 B2 | A4 A4 | d2 e2 f2 e2 | c2 d2 e3 d | %25
w: prove. Ah|me! ah||me! I weep, I|sigh, I grieve and|groan, I|weep, I sigh, I|grieve and groan, I|
 c2 (BA) G2 A2 | B4 (A2 G2) | ^F8 | z4 A4 | d6 c2 | B4 A4 | G4 d4 | g6 f2 | e6 d2 | c6 B2 | %35
w: weep, I * sigh, I|grieve and *|groan;|Yet|she re-|gard- eth|not, yet|she re-|gard- eth|not my|
 A2 d2 B2 c2 | d4 z2 d2 | B4 z2 e2 | c4 z2 f2 | d3 d c2 B2 | B2 A2 B2 B2 | d3 d c3 B | %42
w: moan. Then love, a-|dieu, a-|dieu, a-|dieu, a-|dieu, a- dieu, it|fits not me, To|weep for her that|
 A2 A2 =B2 d2 | g3 g f2 d2 | e2 f2 d4- | d4 z2 G2 | d3 d c2 B2 | B2 A2 B2 B2 | e3 e d2 d2 | %49
w: laughs at thee, to|weep for her that|laughs at thee,|* to|weep for her that|laughs at thee, to|weep for her that|
 c3 B A4 | B2 A4 G2 | ^F2 F2 d4- | d2 d2 c4- | %53
w: laughs at thee,|that laughs at|thee, to weep|* for her|
 c2[Q:1/4=107] (B[Q:1/4=106]A)[Q:1/4=104] (B2[Q:1/4=102] A[Q:1/4=101]G | %54
w: * that * laughs * *|
[Q:1/4=97] A6)[Q:1/4=93] A2 |[Q:1/4=92] =B16 |] %56
w: * at|thee.|
V:2
 z8 | z4!p! G4 | ^F4 d4 | =B4 z2 c2 | =B2 G2 G2 G2 |[M:4/4] _B3 B A2 F2 | G4 z2 d2 | d2 d2 f3 f | %8
w: |Ah|me! ah|me! ah|me! ah me! my|mis- tress scorns my|love, ah|me! my mis- tress|
 e2 d2 B2 c2 | d2 A2 B3 c | d2 B2 A2 A2 | B4 z2 G2 | A3 B c2 B2 | B2 A2 B4 | z4 z2 A2 | %15
w: scorns my love, my|love. I fear she|will most cru- el|prove, I|fear she will most|cru- el prove,|I|
 B3 c d2 B2 | A2 G2 G2 ^F2 | G4 B4 | A4 z2 (B2- | B2 A2 G4) | ^F3 F F3 G | A2 z G A2 G2 | %22
w: fear she will, she|will most cru- el|prove. Ah|me! ah||me! I weep, I|sigh, I grieve and|
 ^F2 =F2 d3 e | f2 z2 z2 G2 | A2 B2 c2 d2 | e2 (d4 c2) | d3 d c2 B2 | A4 A4 | d6 c2 | B4 A4 | %30
w: groan, I weep, I|sigh, I|weep, I sigh, I|grieve and *|groan, I grieve and|groan; Yet|she re-|gard- eth|
 G4 d4 | g6 f2 | e4 d4 | c6 (B2 | A2 B2 G4) | ^F3 F G3 G | ^F4 z2 B2 | G4 z2 c2 | A4 z2 d2 | %39
w: not, yet|she re-|gard- eth|not my||moan. Then love, a-|dieu, a-|dieu, a-|dieu, a-|
 B3 f e2 d2 | c2 c2 d2 F2 | B3 B A2 G2 | G2 ^F2 G4 | z2 G2 d3 d | c2 A2 B3 B | A2 d2 g3 g | %46
w: dieu, a- dieu, it|fits not me, To|weep for her that|laughs at thee,|to weep for|her that laughs at|thee, to weep for|
 f2 d2 e2 d2 | c3 c d3 d | c2 (GA) B2 B2 | e3 e d4 | d2 c4 B2 | A2 A2 B4- | B2 B2 A4- | %53
w: her that laughs at|thee, to weep for|her, for * her, to|weep for her,|that laughs at|thee, to weep|* for her|
 A2 G2 (G4- | G2 ^F=E F3) F | G16 |] %56
w: * that laughs|* * * * at|thee.|
V:3
 z8 |!p! G8 | d4 z2 d2 | G4 z2 c2 | g4 z2 G2 |[M:4/4][K:treble-8] G4 z4 | z2 G2 G2 G2 | %7
w: |Ah|me! ah|me! ah|me! ah|me!|ah me! my|
 B3 B A2 F2 | G2 (F2 E4) | D4 z4 | z4 D4 | G3 A B2 G2 | F2 F2 E4 | z2 F2 B3 c | d2 B2 A2 A2 | %15
w: mis- tress scorns my|love, my *|love.|I|fear she will most|cru- el prove,|I fear she|will most cru- el|
 G4 z2 G2 | c2 c2 d2 d2 | G4 G4 | D8 | e8 | d2 d2 d3 d | c2 z c c3 c | d8 | z2 c2 d2 e2 | %24
w: prove, she|will most cru- el|prove. Ah|me!|ah|me! I weep, I|sigh, I grieve and|groan|I weep, I|
 f2 z2 z2 B2 | c2 d2 e2 e2 | d6 d2 | d8- | d8 | z4 d4 | g6 f2 | e4 d4 | c4 =B4 | c8- | c4 c4 | %35
w: sigh, I|weep, I sigh, I|grieve and|groan;||Yet|she re-|gard- eth|not my|moan,|* my|
 d2 d2 G2 e2 | d2 d2 B4 | z2 e2 c4 | z2 f2 d4 | z2 d2 e2 e2 | f2 f2 B3 B | B2 B2 c2 c2 | d3 d G4 | %43
w: moan. Then love, a-|dieu, a- dieu,|a- dieu,|a- dieu,|a- dieu, it|fits not me, To|weep for her that|laughs at thee,|
 z8 | z2 d2 g3 g | f2 d2 e3 e | d4 z2 B2 | f3 f d2 B2 | c3 c B2 B2 | c2 c2 d4 | d2 f4 g2 | %51
w: |to weep for|her, to weep for|her, to|weep for her that|laughs at thee, to|weep for her|that laughs at|
 d4 z2 B2 | c6 c2 | d6 e2 | d4 d4 | G16 |] %56
w: thee, to|weep for|her that|laughs at|thee.|

